packages/tokens/icons/bookmark/size24Px.svg

<svg viewBox="0 0 24 24" fill="none" xmlns="http://www.w3.org/2000/svg" width="1em" height="1em"><path d="M5 3C5 2.44772 5.44772 2 6 2L18 2C18.5523 2 19 2.44772 19 3V20.7387C19 21.593 17.9979 22.0539 17.3492 21.4979L13.3016 18.0285C12.5526 17.3866 11.4474 17.3865 10.6984 18.0285L6.65079 21.4979C6.00212 22.0539 5 21.593 5 20.7387L5 3Z" stroke="currentColor" stroke-linecap="round" stroke-linejoin="round"/></svg>

<svg xmlns="http://www.w3.org/2000/svg" fill="none" viewBox="0 0 24 24" width="1em" height="1em"><path stroke="currentColor" stroke-linecap="round" stroke-linejoin="round" d="M5 3a1 1 0 0 1 1-1h12a1 1 0 0 1 1 1v17.739a1 1 0 0 1-1.65.759l-4.048-3.47a2 2 0 0 0-2.604 0l-4.047 3.47A1 1 0 0 1 5 20.738V3Z"/></svg>
